X:1
T:We’re Passing On
T:We’re Passing On
T:C. E. Skiles
T:C. E. Skiles, 1918
T:Public Domain Courtesy of the Cyber Hymnal™
T:Public Domain Courtesy of the Cyber Hymnal™
C:C. E. Skiles
Z:Public Domain
Z:Courtesy of the Cyber Hymnal™
%%score ( 1 2 ) ( 3 4 )
L:1/8
Q:1/4=78
M:4/4
K:Ab
V:1 treble 
V:2 treble 
V:3 bass 
V:4 bass 
V:1
 A/F/E E | (z [CA]) A/A/A B x3 | z [Ec] c/c/e e x3 | z [Fe] [Ac]/[GB]/[FA] [Ac] x3 | %4
w: 1.~We are pass- ing|* on to that heav’n-|* ly land Where the|* * saved have gone|
w: 2.~We are pass- ing|* on thro’ this life|* so fast, Soon a|* * day shall dawn|
w: 3.~We are pass- ing|* on where for aye|* we’ll rest, Round the|* * great white throne|
 B4 [GB]!f!A/E/ EE | z [CA] A/B/c e x3 | z [Fd] c/c/e f x3 | z [Ae] [CA]/[DB]/[Ec] [DB] x3 | %8
w: * at the * Lord’s com-|* mand, * Not a|* grief to know, not|* a * doubt or|
w: * that will * be our|* last, * Let us|* all pre- pare, rea-|* dy, * wait- ing|
w: * with the * pure and|* blest, * And with|* glad- ness sing songs|* of * love and|
 [CA]4- [CA] ||"^Refrain" A/E/E E | (z [CA]) A/B/c e x3 | z [Fd] c/c/e f x3 | %12
w: |fear, * For no|* clouds of woe ev-|* er there ap- pear.|
w: |be, * Hea- ven’s|* joys to share thro’|* e- ter- ni- ty.|
w: |praise, * To the|* glor- ious King thro’|* un- end- ing day!|
 z [Ae] [CA]/[DB]/[Ec] [DB] x3 | [CA]4- [CA] |] %14
w: ||
w: * Christ * and friends||
w: ||
V:2
 x3 | A4- C/ C/ C E x | c4- E/ E/ E E x | e4- F/ F/ F F x | G F/ F/ B- A x4 | A4- C/ C/ C E x | %6
 d4- F/ F/ F F x | e4- A/ A/ A A x | x5 || x3 | A4- C/ C/ C E x | d4 F/ F/ F F x | e4 A/ A/ A A x | %13
 x5 |] %14
V:3
 z3 | z [A,,A,]/[A,,F,]/ [A,,E,][A,,C,] [A,,E,] z3 | z [A,,A,]/[A,,A,]/ [C,A,][E,A,] A, z3 | %3
 z [A,C]/[A,C]/ [A,C][A,C] [A,C][A,E]/[F,D]/ [F,C][B,,=D] | %4
 [E,E][B,=D]/[A,D]/ [G,E][F,D] [E,E] z3 | z [A,,A,]/[A,,F,]/ [A,,E,][A,,C,] [A,,E,] z3 | %6
 z [D,A,]/[D,A,]/ [F,A,]A, [D,A,] z3 | z [E,C]/[E,C]/ [E,C][E,C] [E,C][E,A,]/[E,G,]/ [E,A,][E,G,] | %8
 [A,,A,]4- [A,,A,] || z3 | z [A,,A,]/[A,,F,]/ [A,,E,][A,,C,] [A,,E,] z3 | %11
 z [D,A,]/[D,A,]/ [F,A,]A, [D,A,] z3 | z [E,C]/[E,C]/ [E,C][E,C] [E,C][E,A,]/[E,G,]/ [E,A,][E,G,] | %13
 [A,,A,]4- [A,,A,] |] %14
V:4
 x3 | x8 | x4 A, x3 | x8 | x8 | x8 | x3 A, x4 | x8 | x5 || x3 | x8 | x3 A, x4 | x8 | x5 |] %14

